svg/white/veri.svg

<svg xmlns="http://www.w3.org/2000/svg" width="32" height="32" viewBox="0 0 32 32">
  <path fill="#FFF" d="M16,32 C7.163444,32 0,24.836556 0,16 C0,7.163444 7.163444,0 16,0 C24.836556,0 32,7.163444 32,16 C32,24.836556 24.836556,32 16,32 Z M6,8 L6,8.01072814 C7.17456424,13.2400006 8.35022852,18.4690687 9.52699282,23.6979325 L13.5041975,23.6979325 C14.6800951,18.4657311 15.8557927,13.2334275 17.0312903,8.00102173 C15.9635289,8.00122607 14.8955674,8.00098767 13.827406,8.00030652 C13.1927226,11.2338034 12.5578393,14.467062 11.9227559,17.7000821 C11.7858523,18.356338 11.6831496,19.0206656 11.5186452,19.6702804 C11.4758441,19.5080299 11.4356431,19.3445534 11.4034422,19.1798509 C10.7070905,15.4536767 10.0101055,11.7272981 9.31248718,8.00071521 C8.20852479,8.00228186 7.1043624,8.00204346 6,8 Z M18.3139241,12.9315749 L18.313124,12.9309619 C17.5214032,13.899458 17.3002974,15.1932722 17.2067949,16.4150547 C17.1376931,17.6684085 17.1455933,18.9299362 17.2936972,20.1772618 C17.4418011,21.2598849 17.8150109,22.3895075 18.6699334,23.1029802 C19.5899576,23.8803109 20.8430906,24.037044 21.996821,23.9933141 C23.0590489,23.9502993 24.1812785,23.595964 24.8768968,22.7298451 C25.5709151,21.896728 25.7669202,20.7771184 25.8269218,19.717382 L23.1627517,19.717382 C23.0666491,20.3555534 22.9748467,21.054211 22.5348352,21.5517926 C22.2051265,21.916243 21.6608121,22.0123876 21.2093003,21.8651566 C20.7847891,21.7131235 20.5181821,21.2996301 20.3753783,20.8833781 C20.0792705,20.0381025 20.135172,19.1270275 20.1305719,18.2447653 C22.0868234,18.2449697 24.0432748,18.2447313 25.9999263,18.2440501 C26.0012264,17.0504674 25.988026,15.8455434 25.7373194,14.6741322 C25.530014,13.7388423 25.0943025,12.7994655 24.2992816,12.2433389 C23.401358,11.6109914 22.2581279,11.5147446 21.1992,11.5894329 C20.1251717,11.6587061 19.0109424,12.0560562 18.3139241,12.9315749 Z M20.5883839,14.1774702 L20.5891839,14.1775723 C21.084097,13.4345717 22.3804311,13.4379434 22.7899419,14.2655431 C23.1202506,14.9366141 23.1150504,15.7112884 23.1617516,16.4435609 C22.1505917,16.444242 21.1398984,16.444242 20.1296719,16.4435609 C20.1223717,15.6729736 20.133572,14.8313761 20.5883839,14.1774702 Z"/>
</svg>

<svg xmlns="http://www.w3.org/2000/svg" width="32" height="32"><path fill="#FFF" d="M16 32C7.163 32 0 24.837 0 16S7.163 0 16 0s16 7.163 16 16-7.163 16-16 16zM6 8v.01c1.175 5.23 2.35 10.46 3.527 15.688h3.977L17.031 8h-3.204l-1.904 9.7c-.137.655-.24 1.32-.404 1.97a7.778 7.778 0 0 1-.116-.491L9.313 8C8.208 8.003 7.103 8.003 6 8zm12.314 4.932v-.001c-.793.968-1.014 2.262-1.107 3.484-.07 1.253-.061 2.515.087 3.762.148 1.083.521 2.213 1.376 2.926.92.777 2.173.934 3.327.89 1.062-.043 2.184-.397 2.88-1.263.694-.833.89-1.953.95-3.013h-2.664c-.096.639-.188 1.337-.628 1.835-.33.364-.874.46-1.326.313-.424-.152-.69-.565-.834-.982-.296-.845-.24-1.756-.244-2.638H26c.001-1.195-.012-2.4-.263-3.57-.207-.936-.643-1.876-1.438-2.432-.898-.632-2.04-.728-3.1-.654-1.074.07-2.188.467-2.885 1.343zm2.274 1.245h.001c.495-.742 1.791-.74 2.2.089.331.67.326 1.445.373 2.178H20.13c-.008-.771.004-1.613.458-2.267z"/></svg>
